icons/midnadark/actions/24/kt-restore-defaults.svg

<?xml version="1.0" encoding="UTF-8" standalone="no"?>
<!-- Created with Inkscape (http://www.inkscape.org/) -->

<svg
   xmlns:osb="http://www.openswatchbook.org/uri/2009/osb"
   xmlns:dc="http://purl.org/dc/elements/1.1/"
   xmlns:cc="http://creativecommons.org/ns#"
   xmlns:rdf="http://www.w3.org/1999/02/22-rdf-syntax-ns#"
   xmlns:svg="http://www.w3.org/2000/svg"
   xmlns="http://www.w3.org/2000/svg"
   xmlns:sodipodi="http://sodipodi.sourceforge.net/DTD/sodipodi-0.dtd"
   xmlns:inkscape="http://www.inkscape.org/namespaces/inkscape"
   width="22"
   height="22"
   id="svg3869"
   version="1.1"
   inkscape:version="0.91 r13725"
   sodipodi:docname="kt-restore-defaults.svg">
  <defs
     id="defs3871">
    <inkscape:perspective
       sodipodi:type="inkscape:persp3d"
       inkscape:vp_x="0 : 12 : 1"
       inkscape:vp_y="0 : 1000 : 0"
       inkscape:vp_z="24 : 12 : 1"
       inkscape:persp3d-origin="12 : 8 : 1"
       id="perspective4146" />
    <inkscape:perspective
       sodipodi:type="inkscape:persp3d"
       inkscape:vp_x="0 : 12 : 1"
       inkscape:vp_y="0 : 1000 : 0"
       inkscape:vp_z="24 : 12 : 1"
       inkscape:persp3d-origin="12 : 8 : 1"
       id="perspective4090" />
    <clipPath
       clipPathUnits="userSpaceOnUse"
       id="clipPath16">
      <path
         d="m 0,706.465 1490.926,0 L 1490.926,0 0,0 0,706.465 Z"
         id="path18"
         inkscape:connector-curvature="0" />
    </clipPath>
    <clipPath
       clipPathUnits="userSpaceOnUse"
       id="clipPath24">
      <path
         d="m 22.1953,686.117 1447.7347,0 0,-667.1902 -1447.7347,0 0,667.1902 z"
         id="path26"
         inkscape:connector-curvature="0" />
    </clipPath>
    <clipPath
       clipPathUnits="userSpaceOnUse"
       id="clipPath4534">
      <rect
         ry="15.999986"
         y="8.0000038"
         x="8.0000114"
         height="31.999971"
         width="31.999989"
         id="rect4536"
         style="fill:url(#linearGradient4538);fill-opacity:1;stroke:none" />
    </clipPath>
    <clipPath
       clipPathUnits="userSpaceOnUse"
       id="clipPath4584">
      <rect
         ry="15.999986"
         y="507.798"
         x="392.57144"
         height="31.999971"
         width="31.999989"
         id="rect4586"
         style="fill:url(#linearGradient4588);fill-opacity:1;stroke:none" />
    </clipPath>
    <clipPath
       clipPathUnits="userSpaceOnUse"
       id="clipPath4550">
      <rect
         ry="15.999986"
         y="507.798"
         x="392.57144"
         height="31.999971"
         width="31.999989"
         id="rect4552"
         style="fill:url(#linearGradient4554);fill-opacity:1;stroke:none" />
    </clipPath>
    <clipPath
       clipPathUnits="userSpaceOnUse"
       id="clipPath4568">
      <rect
         ry="15.999986"
         y="507.798"
         x="392.57144"
         height="31.999971"
         width="31.999989"
         id="rect4570"
         style="fill:url(#linearGradient4572);fill-opacity:1;stroke:none" />
    </clipPath>
    <clipPath
       clipPathUnits="userSpaceOnUse"
       id="clipPath4528">
      <rect
         ry="15.999986"
         y="8.0000038"
         x="8.0000114"
         height="31.999971"
         width="31.999989"
         id="rect4530"
         style="fill:url(#linearGradient4532);fill-opacity:1;stroke:none" />
    </clipPath>
    <clipPath
       clipPathUnits="userSpaceOnUse"
       id="clipPath4578">
      <rect
         ry="15.999986"
         y="507.798"
         x="392.57144"
         height="31.999971"
         width="31.999989"
         id="rect4580"
         style="fill:url(#linearGradient4582);fill-opacity:1;stroke:none" />
    </clipPath>
    <clipPath
       clipPathUnits="userSpaceOnUse"
       id="clipPath4562">
      <rect
         ry="15.999986"
         y="507.798"
         x="392.57144"
         height="31.999971"
         width="31.999989"
         id="rect4564"
         style="fill:url(#linearGradient4566);fill-opacity:1;stroke:none" />
    </clipPath>
    <clipPath
       clipPathUnits="userSpaceOnUse"
       id="clipPath4544">
      <rect
         ry="15.999986"
         y="507.798"
         x="392.57144"
         height="31.999971"
         width="31.999989"
         id="rect4546"
         style="fill:url(#linearGradient4548);fill-opacity:1;stroke:none" />
    </clipPath>
    <clipPath
       clipPathUnits="userSpaceOnUse"
       id="clipPath4390">
      <rect
         ry="15.999986"
         y="8.0000038"
         x="8.0000114"
         height="31.999971"
         width="31.999989"
         id="rect4392"
         style="fill:url(#linearGradient4532);fill-opacity:1;stroke:none" />
    </clipPath>
    <clipPath
       clipPathUnits="userSpaceOnUse"
       id="clipPath4407">
      <rect
         ry="15.999986"
         y="507.798"
         x="392.57144"
         height="31.999971"
         width="31.999989"
         id="rect4409"
         style="fill:url(#linearGradient4582);fill-opacity:1;stroke:none" />
    </clipPath>
    <clipPath
       clipPathUnits="userSpaceOnUse"
       id="clipPath4424">
      <rect
         ry="15.999986"
         y="507.798"
         x="392.57144"
         height="31.999971"
         width="31.999989"
         id="rect4426"
         style="fill:url(#linearGradient4566);fill-opacity:1;stroke:none" />
    </clipPath>
    <clipPath
       clipPathUnits="userSpaceOnUse"
       id="clipPath4441">
      <rect
         ry="15.999986"
         y="507.798"
         x="392.57144"
         height="31.999971"
         width="31.999989"
         id="rect4443"
         style="fill:url(#linearGradient4548);fill-opacity:1;stroke:none" />
    </clipPath>
    <clipPath
       id="clipPath4528-1"
       clipPathUnits="userSpaceOnUse">
      <rect
         style="fill:url(#linearGradient4532);fill-opacity:1;stroke:none"
         id="rect4530-7"
         width="31.999989"
         height="31.999971"
         x="8.0000114"
         y="8.0000038"
         ry="15.999986" />
    </clipPath>
    <clipPath
       id="clipPath4578-8"
       clipPathUnits="userSpaceOnUse">
      <rect
         style="fill:url(#linearGradient4582);fill-opacity:1;stroke:none"
         id="rect4580-7"
         width="31.999989"
         height="31.999971"
         x="392.57144"
         y="507.798"
         ry="15.999986" />
    </clipPath>
    <clipPath
       id="clipPath4562-8"
       clipPathUnits="userSpaceOnUse">
      <rect
         style="fill:url(#linearGradient4566);fill-opacity:1;stroke:none"
         id="rect4564-8"
         width="31.999989"
         height="31.999971"
         x="392.57144"
         y="507.798"
         ry="15.999986" />
    </clipPath>
    <clipPath
       id="clipPath4544-1"
       clipPathUnits="userSpaceOnUse">
      <rect
         style="fill:url(#linearGradient4548);fill-opacity:1;stroke:none"
         id="rect4546-1"
         width="31.999989"
         height="31.999971"
         x="392.57144"
         y="507.798"
         ry="15.999986" />
    </clipPath>
    <linearGradient
       osb:paint="gradient"
       id="linearGradient4207">
      <stop
         id="stop3371"
         offset="0"
         style="stop-color:#3498db;stop-opacity:1;" />
      <stop
         id="stop3373"
         offset="1"
         style="stop-color:#3498db;stop-opacity:0;" />
    </linearGradient>
  </defs>
  <sodipodi:namedview
     id="base"
     pagecolor="#ffffff"
     bordercolor="#666666"
     borderopacity="1.0"
     inkscape:pageopacity="0.0"
     inkscape:pageshadow="2"
     inkscape:zoom="11.313708"
     inkscape:cx="-8.6975531"
     inkscape:cy="9.4489323"
     inkscape:document-units="px"
     inkscape:current-layer="layer1"
     showgrid="true"
     fit-margin-top="0"
     fit-margin-left="0"
     fit-margin-right="0"
     fit-margin-bottom="0"
     inkscape:window-width="1366"
     inkscape:window-height="633"
     inkscape:window-x="0"
     inkscape:window-y="33"
     inkscape:window-maximized="1"
     inkscape:showpageshadow="false"
     inkscape:object-nodes="true"
     inkscape:snap-bbox="true">
    <inkscape:grid
       type="xygrid"
       id="grid4132" />
    <sodipodi:guide
       position="4,18"
       orientation="18,0"
       id="guide4138" />
    <sodipodi:guide
       position="5,3"
       orientation="0,18"
       id="guide4140" />
    <sodipodi:guide
       position="20,2.0000174"
       orientation="-18,0"
       id="guide4142" />
    <sodipodi:guide
       position="2,21"
       orientation="0,-18"
       id="guide4144" />
    <sodipodi:guide
       position="3,19.000017"
       orientation="16,0"
       id="guide4146" />
    <sodipodi:guide
       position="2,4"
       orientation="0,16"
       id="guide4148" />
    <sodipodi:guide
       position="21,20"
       orientation="-16,0"
       id="guide4150" />
    <sodipodi:guide
       position="2,20"
       orientation="0,-16"
       id="guide4152" />
  </sodipodi:namedview>
  <metadata
     id="metadata3874">
    <rdf:RDF>
      <cc:Work
         rdf:about="">
        <dc:format>image/svg+xml</dc:format>
        <dc:type
           rdf:resource="http://purl.org/dc/dcmitype/StillImage" />
        <dc:title />
      </cc:Work>
    </rdf:RDF>
  </metadata>
  <g
     inkscape:label="Capa 1"
     inkscape:groupmode="layer"
     id="layer1"
     transform="translate(-326,-534.3622)">
    <g
       transform="matrix(0.66666667,0,0,0.66666667,69.95238,190.83023)"
       id="layer1-0"
       inkscape:label="Capa 1"
       style="fill:#ffffff;fill-opacity:1">
      <g
         transform="translate(27.682101,0.12839698)"
         id="g4369"
         style="fill:#ffffff;fill-opacity:1">
        <g
           transform="translate(22.659906,-5.9301729)"
           id="g4382-1"
           style="fill:#ffffff;fill-opacity:1" />
        <g
           transform="matrix(0.97603016,0,0,-0.97603016,8.9380976,1042.0695)"
           id="g4486-5"
           style="fill:#ffffff;fill-opacity:1">
          <g
             transform="translate(0,2.1929912e-5)"
             id="g4830"
             style="fill:#ffffff;fill-opacity:1">
            <g
               transform="matrix(1.0245585,0,0,-1.0245585,-9.1576049,1067.6612)"
               id="g4303"
               style="fill:#ffffff;fill-opacity:1">
              <g
                 transform="matrix(1.5,0,0,1.5,360.88933,-1034.8737)"
                 id="layer1-28"
                 inkscape:label="Capa 1"
                 style="fill:#ffffff;fill-opacity:1">
                <g
                   inkscape:label="Capa 1"
                   id="layer1-4"
                   transform="translate(-412.88298,512.00351)"
                   style="fill:#ffffff;fill-opacity:1">
                  <g
                     transform="translate(392.57143,-514.5642)"
                     id="layer1-7"
                     inkscape:label="Capa 1"
                     style="fill:#ffffff;fill-opacity:1" />
                  <g
                     id="g4240"
                     transform="translate(341.79698,500.25245)"
                     style="fill:#ffffff;fill-opacity:1">
                    <g
                       inkscape:transform-center-y="-9.4924686"
                       inkscape:transform-center-x="5.4653607"
                       inkscape:label="Capa 1"
                       id="layer1-1"
                       transform="translate(-392.98822,-511.27795)"
                       style="fill:#ffffff;fill-opacity:1">
                      <g
                         inkscape:label="Capa 1"
                         id="layer1-15"
                         transform="matrix(1.3333333,0,0,1.3333333,-61.890355,-165.99713)"
                         style="fill:#ffffff;fill-opacity:1">
                        <g
                           transform="translate(392.57143,-514.5642)"
                           id="layer1-7-8"
                           inkscape:label="Capa 1"
                           style="fill:#ffffff;fill-opacity:1" />
                        <g
                           id="g4240-4"
                           transform="translate(341.79698,500.25245)"
                           style="fill:#ffffff;fill-opacity:1">
                          <g
                             inkscape:transform-center-y="-9.4924686"
                             inkscape:transform-center-x="5.4653607"
                             inkscape:label="Capa 1"
                             id="layer1-1-5"
                             transform="translate(-392.98822,-511.27795)"
                             style="fill:#ffffff;fill-opacity:1">
                            <g
                               id="layer1-3-8"
                               inkscape:label="Capa 1"
                               transform="translate(0.41988239,0.03484499)"
                               style="stroke:#1f2a47;stroke-opacity:1;fill:#ffffff;fill-opacity:1">
                              <g
                                 transform="translate(440.36158,509.62534)"
                                 id="g4186"
                                 style="fill:#ffffff;fill-opacity:1">
                                <g
                                   style="stroke:#1f2a47;stroke-opacity:1;fill:#ffffff;fill-opacity:1"
                                   transform="matrix(0.52109202,0,0,0.52109202,-0.76995909,19.353185)"
                                   id="g4186-3">
                                <g
                                   transform="translate(-400.50475,-509.14629)"
                                   inkscape:label="Capa 1"
                                   id="layer1-3-6"
                                   style="fill:#ffffff;fill-opacity:1">
                                <g
                                   inkscape:label="Capa 1"
                                   id="layer1-2"
                                   transform="matrix(1.0037077,0,0,1.0037077,11.267145,17.846026)"
                                   style="fill:#ffffff;fill-opacity:1">
                                <g
                                   transform="matrix(1.5263052,0,0,1.5263052,376.49864,-1040.1735)"
                                   id="g4414-9"
                                   style="fill:#ffffff;fill-opacity:1">
                                <g
                                   id="g4180"
                                   transform="matrix(1.1526351,0,0,1.1526351,-4.8344134,-156.43331)"
                                   style="fill:#ffffff;fill-opacity:1">
                                <g
                                   transform="matrix(0.56841663,0,0,0.56841663,10.426663,1005.5718)"
                                   id="g4186-6"
                                   style="fill:#ffffff;fill-opacity:1" />
                                <g
                                   id="g4280"
                                   style="fill:#ffffff;fill-opacity:1">
                                <g
                                   inkscape:label="Capa 1"
                                   id="layer1-43"
                                   transform="matrix(0.81509151,0,0,0.81509151,-323.19965,584.90903)"
                                   style="fill:#ffffff;fill-opacity:1">
                                <g
                                   transform="translate(392.57143,-514.5642)"
                                   id="layer1-7-3"
                                   inkscape:label="Capa 1"
                                   style="fill:#ffffff;fill-opacity:1" />
                                <g
                                   id="g4240-2"
                                   transform="translate(341.79698,500.25245)"
                                   style="fill:#ffffff;fill-opacity:1">
                                <g
                                   inkscape:transform-center-y="-9.4924686"
                                   inkscape:transform-center-x="5.4653607"
                                   inkscape:label="Capa 1"
                                   id="layer1-1-56"
                                   transform="translate(-392.98822,-511.27795)"
                                   style="fill:#ffffff;fill-opacity:1">
                                <g
                                   id="layer1-3"
                                   inkscape:label="Capa 1"
                                   transform="translate(0.41988239,0.03484499)"
                                   style="stroke:#1f2a47;stroke-opacity:1;fill:#ffffff;fill-opacity:1">
                                <g
                                   transform="translate(440.36158,509.62534)"
                                   id="g4186-1"
                                   style="fill:#ffffff;fill-opacity:1">
                                <g
                                   style="stroke:#1f2a47;stroke-opacity:1;fill:#ffffff;fill-opacity:1"
                                   transform="matrix(0.52109202,0,0,0.52109202,-0.76995909,19.353185)"
                                   id="g4186-3-9">
                                <g
                                   transform="translate(-400.50475,-509.14629)"
                                   inkscape:label="Capa 1"
                                   id="layer1-3-6-6"
                                   style="fill:#ffffff;fill-opacity:1">
                                <g
                                   style="stroke:none;fill:#ffffff;fill-opacity:1"
                                   id="g4162"
                                   transform="matrix(0.76761933,0,0,0.76761933,156.46876,138.50552)">
                                <path
                                   style="opacity:1;fill:#ffffff;fill-opacity:1;stroke:none;stroke-width:2.79999995;stroke-miterlimit:4;stroke-dasharray:none;stroke-opacity:0.55026455"
                                   d="M 4.5996094 3 C 4.15641 3 3.8007812 3.3575818 3.8007812 3.8007812 L 3.8007812 18.199219 C 3.8007812 18.642418 4.15641 19 4.5996094 19 L 17.400391 19 C 17.84359 19 18.199219 18.642418 18.199219 18.199219 L 18.199219 3.8007812 C 18.199219 3.3575818 17.84359 3 17.400391 3 L 4.5996094 3 z M 12.361328 7.8671875 C 12.51254 7.8671875 12.663862 7.9240446 12.779297 8.0390625 C 13.010184 8.2691157 13.010184 8.6427237 12.779297 8.8730469 L 10.207031 11.199219 L 12.779297 13.527344 C 13.010184 13.757667 13.010184 14.131014 12.779297 14.361328 C 12.548428 14.591651 12.174229 14.591651 11.943359 14.361328 L 8.9511719 11.654297 C 8.8264187 11.529693 8.7729192 11.362384 8.7832031 11.199219 C 8.7728929 11.036332 8.8265149 10.870689 8.9511719 10.746094 L 11.943359 8.0390625 C 12.058794 7.9240446 12.210116 7.8671875 12.361328 7.8671875 z "
                                   transform="matrix(2.4999981,0,0,2.4999981,381.07146,496.29802)"
                                   id="rect4319" />
                                <g
                                   style="fill:#ffffff;fill-opacity:1;stroke:none"
                                   id="layer1-7-4-3"
                                   inkscape:label="Capa 1"
                                   transform="translate(-0.71741557,0.01714041)" />
                                <g
                                   id="g4241"
                                   style="fill:#ffffff;fill-opacity:1" />
                                </g>
                                </g>
                                </g>
                                </g>
                                </g>
                                </g>
                                </g>
                                </g>
                                </g>
                                </g>
                                </g>
                                </g>
                                </g>
                                </g>
                              </g>
                            </g>
                          </g>
                        </g>
                      </g>
                    </g>
                  </g>
                </g>
              </g>
            </g>
            <g
               inkscape:label="Capa 1"
               id="layer1-77"
               transform="matrix(1.0245585,0,0,-1.0245585,-63.049694,1078.1017)"
               style="fill:#ffffff;fill-opacity:1">
              <g
                 id="g4369-2"
                 transform="translate(27.682101,0.12839698)"
                 style="fill:#ffffff;fill-opacity:1">
                <g
                   id="g4382-1-9"
                   transform="translate(22.659906,-5.9301729)"
                   style="fill:#ffffff;fill-opacity:1" />
                <g
                   inkscape:label="Capa 1"
                   id="layer1-5"
                   transform="matrix(-1.666667,0,0,1.666667,467.02088,-1211.9733)"
                   style="fill:#ffffff;fill-opacity:1">
                  <g
                     transform="matrix(0.90537551,0,0,0.90537551,-365.91682,562.06022)"
                     id="layer1-0-3"
                     inkscape:label="Capa 1"
                     style="fill:#ffffff;fill-opacity:1;stroke:#4f96d1;stroke-opacity:1" />
                  <g
                     transform="translate(-401.01229,510.63371)"
                     id="layer1-00-7"
                     inkscape:label="Capa 1"
                     style="fill:#ffffff;fill-opacity:1">
                    <g
                       transform="translate(5.05585,-5.251147)"
                       id="layer1-4-2"
                       inkscape:label="Capa 1"
                       style="fill:#ffffff;fill-opacity:1">
                      <g
                         transform="translate(-11.317,5.8824915)"
                         id="layer1-9-7"
                         inkscape:label="Capa 1"
                         style="stroke:#000000;stroke-opacity:0.8;fill:#ffffff;fill-opacity:1">
                        <g
                           transform="translate(1.8733025,-0.28410538)"
                           id="layer1-79-6"
                           inkscape:label="Capa 1"
                           style="fill:#ffffff;fill-opacity:1">
                          <g
                             transform="matrix(0.7863692,0,0,0.78394543,93.525529,112.35451)"
                             id="g4187-8-3"
                             style="fill:#ffffff;fill-opacity:1" />
                        </g>
                      </g>
                    </g>
                  </g>
                </g>
              </g>
            </g>
          </g>
          <g
             style="fill:#ffffff;fill-opacity:1;stroke:none"
             inkscape:label="Capa 1"
             id="layer1-6"
             transform="matrix(0.63644685,0,0,-0.63644685,365.84707,1180.0248)" />
        </g>
      </g>
    </g>
  </g>
</svg>

<svg xmlns="http://www.w3.org/2000/svg" viewBox="0 0 22 22"><defs><clipPath><rect y="8" x="8" height="32" width="32" fill="none" rx="16"/></clipPath><clipPath><rect y="507.8" x="392.57" height="32" width="32" fill="none" rx="16"/></clipPath><clipPath><rect width="32" height="32" x="392.57" y="507.8" fill="none" rx="16"/></clipPath><clipPath><rect y="507.8" x="392.57" height="32" width="32" fill="none" rx="16"/></clipPath><clipPath><rect y="507.8" x="392.57" height="32" width="32" fill="none" rx="16"/></clipPath><clipPath><rect width="32" height="32" x="392.57" y="507.8" fill="none" rx="16"/></clipPath><clipPath><rect width="32" height="32" x="8" y="8" fill="none" rx="16"/></clipPath><clipPath><rect width="32" height="32" x="392.57" y="507.8" fill="none" rx="16"/></clipPath><clipPath><rect y="507.8" x="392.57" height="32" width="32" fill="none" rx="16"/></clipPath><clipPath><rect y="507.8" x="392.57" height="32" width="32" fill="none" rx="16"/></clipPath><clipPath><rect y="8" x="8" height="32" width="32" fill="none" rx="16"/></clipPath><clipPath><path d="m0 706.47h1490.93v-706.47h-1490.93v706.47"/></clipPath><clipPath><path d="m22.2 686.12h1447.73v-667.19h-1447.73v667.19"/></clipPath><clipPath><rect y="507.8" x="392.57" height="32" width="32" fill="none" rx="16"/></clipPath><clipPath><rect y="507.8" x="392.57" height="32" width="32" fill="none" rx="16"/></clipPath><clipPath><rect y="507.8" x="392.57" height="32" width="32" fill="none" rx="16"/></clipPath><clipPath><rect y="507.8" x="392.57" height="32" width="32" fill="none" rx="16"/></clipPath><clipPath><rect y="8" x="8" height="32" width="32" fill="none" rx="16"/></clipPath></defs><path d="m4.6 3c-.443 0-.799.358-.799.801v14.398c0 .443.356.801.799.801h12.801c.443 0 .799-.358.799-.801v-14.398c0-.443-.356-.801-.799-.801h-12.801m7.762 4.867c.151 0 .303.057.418.172.231.23.231.604 0 .834l-2.572 2.326 2.572 2.328c.231.23.231.604 0 .834-.231.23-.605.23-.836 0l-2.992-2.707c-.125-.125-.178-.292-.168-.455-.001-.163.043-.329.168-.453l2.992-2.707c.115-.115.267-.172.418-.172" transform="translate(0-.032)" stroke-opacity=".55" fill="#fff" stroke-width="2.8" stroke="none"/></svg>
